src/images/icons/soc-2-insta.svg

<svg width="40" height="40" viewBox="0 0 40 40" fill="none" xmlns="http://www.w3.org/2000/svg">
<g clip-path="url(#clip0)">
<path fill-rule="evenodd" clip-rule="evenodd" d="M13.532 19.9106C13.532 16.155 16.453 13.234 20.2086 13.234C23.9642 13.234 26.9448 16.155 26.9448 19.9106C26.9448 23.6662 23.9642 26.6468 20.2086 26.6468C16.453 26.6468 13.532 23.6662 13.532 19.9106ZM9.65719 19.9106C9.65719 25.6334 14.307 30.1639 19.9105 30.1639C25.5141 30.1639 30.1639 25.5142 30.1639 19.9106C30.1639 14.307 25.5737 9.59762 19.9701 9.59762C14.3666 9.59762 9.65719 14.2474 9.65719 19.9106ZM28.3159 9.41878C28.3159 10.7303 29.3293 11.7437 30.6408 11.7437C31.8927 11.7437 32.9657 10.7303 32.9657 9.41878C32.9657 8.16691 31.8927 7.09389 30.6408 7.09389C29.3293 7.09389 28.3159 7.92846 28.3159 9.41878ZM11.9821 36.2444C10.0745 36.2444 9.00145 35.8867 8.22649 35.6483C7.45152 35.231 6.55733 34.8137 5.9016 34.158C5.24586 33.5618 4.88818 32.7273 4.4709 31.8331C4.23245 31.237 3.81516 30.1639 3.81516 28.0775C3.81516 25.9911 3.57671 25.3949 3.57671 19.9106C3.57671 14.4858 3.57671 13.8301 3.81516 11.7437C3.81516 9.83607 4.23245 8.82265 4.4709 7.98808C4.88818 7.21311 5.24586 6.31893 5.9016 5.66319C6.55733 5.06706 7.3323 4.64978 8.22649 4.23249C9.00145 4.23249 10.1341 3.8152 11.9821 3.8152C14.0685 3.8152 14.7242 3.57675 20.149 3.57675C25.3353 3.57675 26.2295 3.57675 28.3159 3.8152C30.2235 3.8152 31.2965 4.23249 32.0715 4.47094C32.9061 4.88823 33.7406 5.30551 34.3964 5.90164C35.0521 6.55738 35.4694 7.39195 35.8271 8.22653C36.0655 8.88227 36.4828 9.89568 36.4828 11.9821C36.4828 14.0686 36.7213 14.7243 36.7213 20.149C36.7213 25.3949 36.7213 26.2295 36.4828 28.3159C36.4828 30.2832 36.0655 31.2966 35.8271 32.0715C35.4694 32.9061 35.0521 33.8003 34.3964 34.3964C33.7406 35.0522 32.9657 35.4694 32.0715 35.8867C31.4158 36.1252 30.4023 36.4829 28.3159 36.4829C26.2295 36.4829 25.5737 36.7213 20.149 36.7213C14.7242 36.4232 14.0685 36.4232 11.9821 36.2444ZM11.8032 0.23845C9.7168 0.23845 8.22649 0.655738 7.03423 1.01341C5.84198 1.4307 4.4709 2.32489 3.39787 3.3383C2.38446 4.41133 1.49027 5.66319 1.07298 6.85544C0.715308 8.1073 0.29802 9.59762 0.29802 11.6841C0.0595703 13.8301 0.0595703 14.6647 0.0595703 19.9106C0.0595703 25.2161 0.0595703 25.9911 0.29802 28.0775C0.29802 30.1639 0.715308 31.7139 1.07298 32.9061C1.49027 34.158 2.38446 35.3502 3.39787 36.4829C4.4709 37.6155 5.72276 38.4501 7.03423 38.8078C8.2861 39.4635 9.7168 39.8808 11.8032 39.8808C13.8897 39.8808 14.5454 40 19.9701 40C25.4545 40 26.0506 40 28.1371 39.7616C30.2235 39.7616 31.7734 39.4039 32.9657 38.9866C34.2175 38.5693 35.4694 37.6751 36.5424 36.6617C37.6155 35.6483 38.5096 34.3368 38.8673 33.0849C39.2846 31.7735 39.7019 30.3428 39.7019 28.2563C39.7019 26.1699 39.9403 25.5142 39.9403 20.0894C39.9403 14.6647 39.9403 14.0089 39.7019 11.9225C39.7019 9.83607 39.2846 8.34575 38.8673 7.09389C38.5096 5.90164 37.6155 4.64978 36.5424 3.51714C35.529 2.3845 34.2175 1.60954 32.9657 1.19225C31.6542 0.774963 30.2235 0.417288 28.1371 0.417288C26.2295 0 25.4545 0 19.9701 0C14.7242 0 13.8897 0 11.8032 0.23845Z" fill="#003067"/>
</g>
<defs>
<clipPath id="clip0">
<rect width="40" height="40" fill="white"/>
</clipPath>
</defs>
</svg>

<svg xmlns="http://www.w3.org/2000/svg" width="40" height="40" fill="none" viewBox="0 0 40 40">
	<g clip-path="url(#soc-2-insta-a)">
		<path fill="#003067" fill-rule="evenodd" d="M13.532 19.91c0-3.755 2.921-6.676 6.677-6.676 3.755 0 6.736 2.921 6.736 6.677a6.692 6.692 0 0 1-6.736 6.736c-3.756 0-6.677-2.98-6.677-6.736zm-3.875 0c0 5.723 4.65 10.254 10.253 10.254 5.604 0 10.254-4.65 10.254-10.253 0-5.604-4.59-10.313-10.194-10.313-5.603 0-10.313 4.65-10.313 10.313zM28.316 9.42a2.29 2.29 0 0 0 2.325 2.325 2.328 2.328 0 0 0 2.325-2.325c0-1.252-1.073-2.325-2.325-2.325-1.312 0-2.325.834-2.325 2.325zM11.982 36.244c-1.907 0-2.98-.357-3.756-.596-.774-.417-1.669-.834-2.324-1.49-.656-.596-1.014-1.43-1.431-2.325-.239-.596-.656-1.67-.656-3.755 0-2.087-.238-2.683-.238-8.167 0-5.425 0-6.08.238-8.167 0-1.908.417-2.921.656-3.756.417-.775.775-1.67 1.43-2.325.656-.596 1.431-1.013 2.325-1.43.775 0 1.908-.418 3.756-.418 2.087 0 2.742-.238 8.167-.238 5.186 0 6.08 0 8.167.238 1.908 0 2.98.417 3.756.656.834.417 1.669.835 2.324 1.43.656.656 1.073 1.49 1.431 2.326.239.655.656 1.669.656 3.755 0 2.087.238 2.742.238 8.167 0 5.246 0 6.08-.238 8.167 0 1.967-.417 2.98-.656 3.756-.358.834-.775 1.728-1.43 2.324-.656.656-1.431 1.073-2.325 1.49-.656.24-1.67.597-3.756.597s-2.742.238-8.167.238c-5.425-.298-6.08-.298-8.167-.477zM11.803.238c-2.086 0-3.577.418-4.769.775-1.192.418-2.563 1.312-3.636 2.325C2.384 4.411 1.49 5.663 1.073 6.855.715 8.107.298 9.598.298 11.685.06 13.83.06 14.664.06 19.91c0 5.305 0 6.08.238 8.166 0 2.087.417 3.637.775 4.83.417 1.251 1.311 2.443 2.325 3.576 1.073 1.133 2.325 1.967 3.636 2.325 1.252.656 2.683 1.073 4.77 1.073 2.086 0 2.741.119 8.166.119 5.485 0 6.08 0 8.167-.238 2.087 0 3.636-.358 4.829-.775 1.252-.418 2.503-1.312 3.576-2.325 1.073-1.014 1.968-2.325 2.325-3.577.418-1.312.835-2.742.835-4.829 0-2.086.238-2.742.238-8.167 0-5.424 0-6.08-.238-8.166 0-2.087-.417-3.577-.835-4.83-.357-1.191-1.252-2.443-2.325-3.576-1.013-1.132-2.325-1.907-3.576-2.325-1.312-.417-2.742-.775-4.829-.775C26.23 0 25.454 0 19.97 0c-5.246 0-6.08 0-8.167.238z" clip-rule="evenodd"/>
	</g>
	<defs>
		<clipPath id="soc-2-insta-a">
			<path fill="#fff" d="M0 0h40v40H0z"/>
		</clipPath>
	</defs>
</svg>
